X: 4559
T: Boston-Sligo, The
R: reel
M: 4/4
K: Dmajor
A|BAFA B2dB|BAFD EDB,D|BAFA B2dB|AFDF E3A|
BAFA B2dB|BAFD EDB,E|DB,A,B, DEFA|BFAF D3:|
|:a|f3a bafb|afdf edBd|f3a bafb|afdf e2de|
fefa bafb|afdf edBA|DEFA BAdB|AFEF D3:|

